z_dist/img/icons/crypto/ftx-token-FTX.svg

<svg width="64" height="64" viewBox="0 0 64 64" fill="none" xmlns="http://www.w3.org/2000/svg">
<g clip-path="url(#clip0_252_1836)">
<rect y="0.000244141" width="64" height="64" rx="4" fill="white"/>
<path d="M21.5697 11.123C33.0449 11.1195 44.5208 11.1195 55.9975 11.123C56.001 14.8322 56.001 18.5408 55.9975 22.2488C44.5219 22.2523 33.046 22.2523 21.5697 22.2488C21.566 18.5396 21.566 14.831 21.5697 11.123Z" fill="#02A6C2"/>
<path d="M8.0144 26.4346C11.7166 26.4154 15.4194 26.4154 19.1229 26.4346C19.1421 30.1367 19.1421 33.8396 19.1229 37.543C15.4196 37.5621 11.7167 37.5624 8.0144 37.544C7.9952 33.8412 7.9952 30.138 8.0144 26.4346Z" fill="#5FCADE"/>
<path d="M21.5781 26.4346C29.8608 26.417 38.1428 26.417 46.4243 26.4346C46.4419 30.1368 46.4419 33.8397 46.4243 37.5432C38.1419 37.5605 29.8598 37.5605 21.5781 37.5432C21.5609 33.8408 21.5609 30.1379 21.5781 26.4346Z" fill="#5FCADE"/>
<path d="M21.5886 41.7494C25.2846 41.7092 28.9799 41.7092 32.6745 41.7494C32.7129 45.4429 32.7135 49.1383 32.6762 52.8354C28.9803 52.8718 25.2851 52.8712 21.5906 52.8334C21.5522 49.1402 21.5515 45.4455 21.5886 41.7494Z" fill="#ABEBF4"/>
</g>
<defs>
<clipPath id="clip0_252_1836">
<rect width="64" height="64" fill="white" transform="translate(0 0.000244141)"/>
</clipPath>
</defs>
</svg>

<svg width="64" height="64" fill="none" xmlns="http://www.w3.org/2000/svg"><g clip-path="url(#clip0_252_1836)"><rect width="64" height="64" rx="4" fill="#fff"/><path d="M21.57 11.123c11.475-.003 22.95-.003 34.428 0 .003 3.71.003 7.418 0 11.126-11.476.003-22.952.003-34.428 0-.004-3.71-.004-7.418 0-11.126z" fill="#02A6C2"/><path d="M8.014 26.435c3.703-.02 7.405-.02 11.109 0 .02 3.702.02 7.405 0 11.108-3.703.02-7.406.02-11.109.001-.019-3.703-.019-7.406 0-11.11zm13.564 0a5845.97 5845.97 0 0124.846 0c.018 3.702.018 7.405 0 11.108a6052.2 6052.2 0 01-24.846 0 1209.69 1209.69 0 010-11.108z" fill="#5FCADE"/><path d="M21.589 41.75c3.696-.04 7.39-.04 11.086 0 .038 3.693.039 7.388.001 11.085a552.08 552.08 0 01-11.085-.002 531.85 531.85 0 01-.002-11.084z" fill="#ABEBF4"/></g><defs><clipPath id="clip0_252_1836"><path fill="#fff" d="M0 0h64v64H0z"/></clipPath></defs></svg>
